X:1
T:Impromptu, in C
T:Impromptu I 
T:Franz Schubert, Op 90, N° 1
T:in C minor
C:Franz Schubert, Op 90, N° 1
%%score { ( 1 3 5 ) | ( 2 4 ) }
L:1/8
Q:1/4=85
M:4/4
K:Eb
V:1 treble nm="Piano" snm="Pno."
V:3 treble 
V:5 treble 
V:2 bass 
V:4 bass 
V:1
!ff!"^Allegro molto moderato" !fermata![Gg]6!pp! (=B>c | .d2 .d2 .d2 c>d | e3 d c2) (d>c | %3
 =B2 =A>B c2 d>e | d6) (.[DG=B]>.[EGc] | .[FGd]2 .[FGd]2 .[FGd]2 .[EGc]>[FGd] | %6
 [Ge]7/2 .[FGd]/ [EGc]2) (!>![F_Ad]>"_staccato".[EAc] | .[DG=B]2 [CG=A]>[DGB] [EGc]2 [Ge]>[FGd] | %8
 !tenuto![EGc]6) (d>e | .f2 .f2 .f2 e>d | g3 f e2) (d>c | =B2 =A>B c2 f>e | d6) ([F_Bd]>[GBe] | %13
 .[ABf]2 .[ABf]2 .[ABf]2 .[GBe]>.[FBd] | [Bg]7/2 [ABf]/ [GBe]2) (!>![FAd]>"_staccato"[EAc] | %15
 [DG=B]2 [CG=A]>[DGB] [EGc]2 [Ge]>[FGd] | [EGc]6)!p! (=B>c | .d2 .d2 .d2 c>d | %18
!>(!{cd} e3!>)! d c2) d>c | .[G=B]2 .[G=A]>.[GB] .[Gc]2 .[Gd]>.[Ge] | %20
"_ten." [Gd]6!f! .[DG=B]>.[EGc] | .[FGd]2 .[FGd]2 .[FGd]2 .[EGc]>.[FGd] | %22
 [Ge]7/2 .[FGd]/ .[EGc]2"_staccato" (!>![FAd]>[EAc] | [DG=B]2 [CG=A]>[DGB] [EGc]2 !>![Ge]>[FGd] | %24
 [EGc]6)!p! (d>e | f2 f2!<(! f2 Pe>d!<)! |!>(! g7/2 f/!>)! e2) (d>c | %27
 [DG=B]2"_staccato" [CG=A]>[DGB] [EGc]2 [Gf]>[Ge] | [Gd]6)!ff! (.[F_Bd]>.[GBe] | %29
 .[ABf]2 .[ABf]2 .[ABf]2 .[GBe]>.[FBd] | .[Bg]7/2 .[ABf]/ .[GBe]2)"_staccato" (!>![FAd]>[EAc] | %31
 [DG=B]2 [CG=A]>[DGB] [EGc]2 !>![Ge]>[FGd] | [EGc]6) (e>d | [EAc]6{/c} e>d | [Gc]6) (d>e | %35
 .[Acf]2 .[Gce]>.[Fd] .[Ec]2 .[DG=B]2 | [EGc]6)!p! (e>d | [EAc]6 e>d | [Gc]6)!pp! (_d>e | %39
{_de} .[Af]2 .[Ae]>.[Ad] .[Ac]2 .[_DEGB]2 | [CEA]4) z2!p! (A>c | .e2!<(! .e2 .e2 .e2!<)! | %42
!>(! f4 e4!>)! | _d4 c4 |!pp! (B2) _d2 c2 B2 | A4) z2 (A>c | e2!mf!!<(! .[Ee]2 .[Ee]2 .[Ee]2!<)! | %47
!>(! [_F_f]4!>)! [Ee]4 |"_decresc." _d4 _c3 B |!pp! (A2){/A} _f2 e2 _d2 | _c6) (c>e | %51
 [_G_g]2!<(! [Gg]2 [=G=g]2 [Aa]2!<)! | [Bb]2 [_d_d']2!>(! [_c_c']2) ([Bb]>[Aa]!>)! | %53
!p! [Gg]2 [Gg]2 [Aa][Gg][Ff][Gg] | [Aa]6) (a>c' | [ee']2 [ee']2!<(! [ee']2 [ee']2!<)! | %56
!>(! [ff']2 [gg']2!>)! [aa']2) ([ee']2 | ([ee']2 [_d_d']) z ([dd']2 [cc']) z |!pp! b2 _d'2 c'2 b2 | %59
 (3a!mf! EA (3cAE (3ecA) (3(Ace | (3eBG (3eBG (3ecA!<(! (3Beg!<)! | %61
!>(! (3aeA!>)! (3adA (3aeB) (3(Beg | (3fBG (3f=BG (3fcA (3Ace | (3_DA_d (3FAB (3EAc (3Aed | %64
 (3[EAc] EA (3cAE (3ecA) (3(Ace | (3eBG (3eBG!<(! (3e_cA (3Beg!<)! | %66
!>(! (3aeA (3a_dB!>)! (3ad_c) (3(ce_g | (3_f_c=G (3fBG (3fcA (3Ace | (3A_c_d (3Ac_f (3_Gce (3B_gf | %69
 (3[_G_ce] EG (3cGE (3ecG) (3ce_g |!mf! ([_G_g]2 [Gg]2!<(! [=G=g]2 [Aa]2!<)! | %71
!>(! [Bb]2!>)! [_d_d']2 [_c_c']2!p! [Bb]>[Aa] | [Gg]2 [Gg]2 [Aa][Gg][Ff][Gg] | %73
!pp!"_una corda" [Aa]4) (_dc=Bc |{/c} f4 c_B=AB |{/B} e4)!<(! (_dcB_A!<)! | %76
!>(! [Ge][F_d][Ec][_DB]!>)! [CA]2 [Ec]>[DB] | [CA]2) z2 (_dc=Bc | c'b=ab cB=AB | %79
 b_aga)!<(! (_dcBA!<)! |!>(! [Geg][F_df][Ece][_DBd]!>)! [CAc]2 d>B | [A,CEA]6)!pp! (C>E | %82
 (.[A,A]2) .[A,A]2 .[A,A]2 .[A,A]2 | !>![G,G]6) (C>E | [G,G]2"_cresc." [G,G]2 [G,G]2 [G,G]2 | %85
!f! [F,F]4 [^F,^F]4 |!p! (3[G,G])[G,G][G,G] (3:2:1!/![G,G]3 (6:4:1!/![G,G]6 | %87
 (3:2:1!/![G,G]6 (3:2:1!/![G,G]6 | (3:2:1!/![G,G]6 (3:2:1!/![G,G]3 (3[G,G][G,G][F,F] | %89
 (3:2:1!/!!>![G,CEG]6 (3:2:1!/!!>![G,=B,DG]6 | %90
"_cresc." (3[G,CEG][G,G][G,G] (3:2:1!/![G,G]3 (3:2:1!/![G,G]6 | %91
!f! (3:2:1!/![G,G]6!<(! (3:2:1!/![G,G]3 (3:2:1!/![A,A]3!<)! | %92
!ff!!>(! (3:2:1!/![G,G]6!>)! (3:2:1!/![G,G]3 (3[G,G][G,G][F,F] | %93
!f! (3:2:1!/!!>![G,CEG]6 (3:2:1!/!!>![G,=B,DG]6 |!p! [G,CEG]4 z2!pp! (=B>c | .d2 .d2 .d2 c>d | %96
 e3 d c2) (d>c | =B2 =A>B c2 d>e) |"_cresc." d6!f! ([=B,G=B]>[C=Ac] | %99
 .[D=Bd]2 .[DBd]2 .[DBd]2 [CGc]>[DGd] | e3"_cresc." d c2) (d>c | =B2 (B2 c2) e>d | c6)!pp! (d>e | %103
 f2 f2 f2 e>d | g3 f e2) (d>c | =B2 B2 c2 f>e) | d6!f! (d>e | %107
 [Fdf]2 [Fdf]2 [Fdf]2!<(! [Geg]>[Afa]!<)! |!>(! [Bgb]2 [dfa]2!>)! [eg]2) (f>d | %109
"_cresc." =B2 (B2 c2) e>d | c6)!ff! (3([Cc][Cc][Cc] | [cdac']6 (3[Cc][Cc][Cc] | %112
 [cegc']6)!<(! (3([Cc][Cc][Cc] | [_DF_d]2!<)!!>(! [Ff]>!>)![Aa] [Gceg]2!mp! [G=B=dg]2 | %114
 [CEGc]6) (3[Cc][Cc][Cc] | ([cdc']6 (3[Cc][Cc][Cc] | !>![cgc']6)!<(! (3([Cc][Cc][Cc]!<)! | %117
 !>![_D_d]2!>(! [Ff]>[Aa]!>)!!mp! [Gceg]2 [G=B=dg]2 | [CEGc]6) (3[Cc][Cc][Cc] | %119
"_cresc." (3:2:1!/![_Dc]3 (3:2:1!/![=Dc]3!<(! (3:2:1!/![Ec]3!<)!!>(! (3:2:1!/![=Ec]3!>)! | %120
!p! (3:2:1!/![=Ec]6 (3:2:1!/![Fc]3!pp! (3:2:1!/![_E^Fc]3 | %121
 (3:2:1!/![^Fc]6 (3:2:1!/!c3"_dim." (3:2:1!/!B3 | %122
 (3:2:1!/!B3 (3:2:1!/!=A3 (3:2:1!/![B,DG]3 (3:2:1!/![=A,D^F]3 | [B,DG]4 z2!pp! G>B | d2 d2 d2 d2 | %125
 e4 d4 | c4 B4 | =A2 c2 B2 A2 |!<(! G6!<)! z2 |!mp! d2 d2 d2 d2 | e4 d4 | c4 B4 |!pp! G2 e2 d2 c2 | %133
!<(! B6!<)! z2 | ([Ff]2 [Ff]2 [^F^f]2 [Gg]2 | [=A=a]2 [cc']2 [Bb]2) ([Aa]>[Gg] | %136
 [^F^f]2 [Ff]2 [Gg][Ff][=E=e][Ff] | [Gg]4) z/!f! G/B/d/ g/B/d/g/ | %138
 z .[=Ad^f] z .[cd=a] z .[Bdg] z .[Adf] | z .[Gdg].[Gcg].[^cg^c'] z .[dg=ad'].[d^fad'].[^F=Ad] | %140
 z .[EBe].[E=Ae].[Ae=a] z .[Befb].[Bdfb].[DFB] | z [EGc]z[^F=Ae] z [GBd]z[cd^f] | %142
 z [GBg][DBd][D=Ac] [DGB][GBd][Bdg][GBd] | z [^F=Ad]z[cd=a] z [GBg]z[Ad^f] | %144
 z [Gdg][Gcg][^cg^c'] z [dg=ad'][d=fad'][F=Ad] | z [EBe][E=Ae][Ae=a] z [Befb][Bdfb][Fc] | %146
 z [EBe]z[GBc] z [FBf]z[=Aef=a] | z"_decresc." [Befb][Bdfb][Bdf] [FBd][DFB]!p!([B,B]>[Dd] | %148
 [Ff]2!<(! [Ff]2 [^F^f]2 [Gg]2!<)! |!>(! [=A=a]2 [cc']2 [Bb]2)!>)! ([Aa]>[Gg] | %150
 [^F^f]2 [Ff]2 [Gg][Ff][=E=e][Ff] ||[K:C] [Gg]4) (cB^AB!pp! |{/B} e4 B=A^GA | %153
{A)} d4!<(! (cBAG!<)! |!>(! [^Fd][Ec][DB][CA]!>)! [B,G]2 [DB]>[CA] | [B,G]2) z2 (cB^AB | %156
 ba^ga BA^GA | ag^fg)!<(! (cBAG!<)! |!>(! [^Fd^f][Ece][DBd][CAc]!>)! [B,GB]2 c>A | %159
 (3[B,G])!pp![G,G][G,G] (3:2:1!/![G,G]3 (3:2:1!/![G,G]6 | (3:2:1!/![G,G]6 (3:2:1!/![G,G]6 | %161
 (3:2:1!/![G,G]6 (3:2:1!/![G,G]3 (3[G,G][G,G][F,F] | (3:2:1!/!!>![G,C_EG]6 (3:2:1!/!!>![G,B,DG]6 | %163
 (3[G,C_EG][G,G]"_cresc."[G,G] (3:2:1!/![G,G]3 (3:2:1!/![G,G]6 | %164
!<(! (3:2:1!/![G,G]6 (3:2:1!/![G,G]3 (3:2:1!/![_A,_A]3!<)! | %165
!f!!>(! (3:2:1!/![G,G]6 (3:2:1!/![G,G]3!>)!"_decresc." (3[G,G][G,G][F,F] | %166
!p! (3:2:1!/!!>![G,C=EG]6 (3:2:1!/!!>![G,B,DG]6 | (3:2:1!/![G,CEG]6 z2!pp! ([DGB]>[EGc] | %168
 [FGd]2 [FGd]2 [FGd]2 [EGc]>[FGd] | [Ge]3 [FGd] [EGc]2) ([FGd]>[EGc] | %170
 [DGB]2 [CGA]>[DGB] [EGc]2 [GBd]>[Gce] | [GBd]6)!f! ([B,GB]>[CAc] | %172
 [DBd]2!<(! [DBd]2 [DBd]2 [Ece]>[Fdf]!<)! |!>(! [Geg]2 [Bdf]2 [ce]2)!>)!!mp! ([Af]>[FAd] | %174
 [D=GB]2 [DGB]2 [DGB]2 [Ge]>[FGd] | [EGc]4) z2!pp! (b>c' | d'2 d'2!<(! d'2 c'>!<)!d' | %177
 _e'3 d' c'2) (d'>c' | b2 a>b c'2 d'>_e' | [bd']6) (d>_e | f2 [_cdf]2!<(! f2 P_e>d!<)! | %181
 g3 g _e2) (d>c |!p! =B2 =A>B c2 [df]>[c_e] | d6)!f! ([B,GB]>[CAc] | %184
 [DBd]2!<(! [DBd]2 [DBd]2 [=Ec=e]>[Fdf]!<)! |!ff!!>(! [Geg]3 [Fdf]!>)! [E^ce]2) z2 | %186
 (!>!E3 F E2) z2 |!ff! ([Fdf]3 [_Ec_e] [DBd]2) z2 | (D3 _E D2) z2 | (_e4 d2 c2 | G4 cBAB | c8- | %192
 c6)!ppp! (B>c | .d2 .d2 .d2 cB | _e3 d c)(Gcd | _e2 dc G2 [F=B]2 | [=Ec]6) z2 | z2 !>![Gg]4 z2 | %198
 z2 !>![Gg]4!<(! (_ef!<)! |!>(! g_e=Bc!>)! .G2 .[FB]2 | [=Ec]4) (.G2 .[FB]2 | %201
 [Ec]4)"_cresc." (G,2 [F,B,]2 |!p! [E,C]4 [E,G,C]4 | !fermata![E,G,C]8) |] %204
V:2
 [G,,,G,,]6 z2 | z8 | z8 | z8 | z4 z2 .G,>.G, | .G,2 .G,2 .G,2 .G,2 | .G,2 .=A,>.=B, .C2 F,>F, | %7
 .G,7/2 .[F,G,]/ .[E,G,]2 .[G,,G,]>.[G,,G,] |"^ten." !tenuto![C,G,]6 z2 | z8 | z8 | z8 | %12
 z4 z2 ._B,>.B, | .B,2 .B,2 .B,2 .B,>.B, | .B,2 .C>.D .E2 F,>F, | %15
 G,7/2 [F,G,]/ [E,G,]2 [G,,G,]>[G,,G,] | [C,G,]6 z2 | z2 (F2 ^F2)!<(! ([DF]2!<)! | ^F6 D2) | %19
 .[G,D]2 .[F,G,D]>.[F,G,D] .[E,G,C]2 .[D,G,=B,]>.[C,G,C] | [G,=B,]6 .[G,,G,]>.[G,,G,] | %21
 .[G,,G,]2 .[G,,G,]2 .[G,,G,]2 .[G,,G,]>.[G,,G,] | %22
 .[G,,G,]2 .[=A,,=A,]>.[=B,,=B,] .[C,C]2 [F,,F,]>[F,,F,] | %23
 [G,,G,]2 G,,>[F,,G,,] [E,G,]2 [G,,,G,,]>[G,,,G,,] | [C,,G,,]6 z2 | z2 (F2 [DF]2) ([B,F]2 | %26
 E2 [=B,DF]2 [CE]2) (F,2 | G,2) G,>[F,G,] [E,G,]2 [D,G,=B,]>[C,G,C] | %28
 [G,=B,]6 .[_B,,,_B,,]>.[B,,,B,,] | .[B,,,B,,]2 .[B,,,B,,]2 .[B,,,B,,]2 .[B,,,B,,]>.[B,,,B,,] | %30
 .[B,,,B,,]2 .[C,,C,]>.[D,,D,] .[E,,E,]2 [F,,F,]>[F,,F,] | %31
 [G,,G,]2 G,>[F,G,] [E,G,]2 [G,,,G,,]>[G,,,G,,] | [C,,G,,]6 z2 |!ped! [A,,E,A,]6 z2!ped-up! | %34
!ped! [E,,C,E,]6 [C,C]2!ped-up! | .[F,,F,]2 .[G,,G,]>.[A,,A,] .[G,,G,]2 .[G,,,G,,]2 | %36
!ped! [C,,G,,C,]6 z2!ped-up! |!ped! [A,,E,A,]6 z2!ped-up! |!ped! [E,,C,E,]6 z2!ped-up! | %39
 ._D,2 .E,>.F, .E,2 .[E,,E,]2 | (3(A,,C,E, (3C,E,A, (3=B,,D,A, (3C,E,A, | %41
 (3A,,)C,A, (3C,E,A, (3=B,,D,A, (3C,E,A, | (3_D,F,A, (3D,G,B, (3C,A,C (3C,E,A, | %43
 (3B,,E,A, (3B,,E,G, (3A,,E,B, (3A,,E,A, | (3_D,A,B, (3F,A,_D (3E,A,C (3E,G,B, | %45
 (3A,,C,A, (3C,E,A, (3=B,,D,A, (3C,E,A, | (3A,,C,A, (3C,E,A, (3=B,,D,A, (3C,E,A, | %47
 (3_D,_F,A, (3D,F,B, (3_C,_G,_C (3C,G,C | (3_F,A,_D (3F,_G,B, (3E,G,_C (3E,=G,D | %49
 (3_F,A,_C (3A,C_F (3_G,CE (3G,B,_D | (3_C,E,_C (3E,_G,C (3=D,F,C (3E,G,C | %51
 (3_C,E,_G, (3C,E,G, (3B,,_D,E, (3A,,D,E, | (3G,,_D,E, (3G,,B,,E, (3A,,_C,E, (3D,_F,B, | %53
 (3E,B,_D (3E,B,D (3E,B,D (3E,B,D | (3A,CE[K:treble] (3CEA (3=B,DA (3CEA | %55
 (3A,CA (3CEA (3=B,DA (3CEA | (3_DFA (3DEB (3CEA (3CEA | (3B,EG (3B,EG (3A,EA (3A,EA | %58
 (3_DAB (3FA_d (3EAc (3EGB | [A,CA] z z2 z2[K:bass] A,>C | E2 E2 E2 E2 | F4 E4 | _D4 C4 | %63
 B,2 _D2 C2 [E,B,]2 | [A,,E,A,]2 z2 z2!f! ([A,,A,]>[C,C] | [E,E]2 [E,E]2 [E,E]2 [E,E]2 | %66
 [_F,_F]4 [E,E]4 | [_D,_D]4 _C3 B, | [_F,A,]2 [_D,A,_F]2 [_G,E]2 [G,_D]2 | [_C,_G,_C]2) z2 z4 | %70
 (3_C,E,_G, (3C,E,G, (3B,,_D,E, (3A,,D,E, | (3G,,_D,E, (3G,,B,,E, (3A,,_C,E, (3D,_F,B, | %72
 (3E,B,_D (3E,B,D (3E,B,D (3E,B,D | %73
 (3A,,[E,A,C][E,A,C] (3[E,A,C][E,A,C][E,A,C] (3[E,A,C][E,A,C][E,A,C] (3[E,A,C][E,A,C][E,A,C] | %74
!ped! (3_D,,[_D,F,C][D,F,C] (3[D,F,=A,][D,F,A,][D,F,A,]!ped-up!!ped! (3[D,F,B,][D,F,B,][D,F,B,] (3[D,F,B,][D,F,B,][D,F,B,]!ped-up! | %75
!ped! (3C,,[C,E,B,][C,E,B,] (3[C,E,G,][C,E,G,][C,E,G,]!ped-up!!ped! (3[C,E,_A,][C,E,A,][C,E,A,] (3[C,E,A,][C,E,A,][C,E,A,]!ped-up! | %76
!ped! (3_D,,[_D,F,][D,F,] (3[D,F,][D,F,]!ped-up![D,F,]!ped! (3E,,[E,A,][E,A,] (3E,,[E,G,][E,G,]!ped-up! | %77
!ped! (3A,,[E,A,C][E,A,C] (3[E,A,C][E,A,C][E,A,C] (3[E,A,C][E,A,C][E,A,C] (3[E,A,C][E,A,C][E,A,C]!ped-up! | %78
!ped! (3_D,,[_D,F,C][D,F,C] (3[D,F,C][D,F,C]!ped-up![D,F,C]!ped! (3[D,F,B,][D,F,B,][D,F,B,] (3[D,F,B,][D,F,B,][D,F,B,]!ped-up! | %79
!ped! (3C,,[C,E,B,][C,E,B,] (3[C,E,B,][C,E,B,]!ped-up![C,E,B,]!ped! (3[C,E,A,][C,E,A,][C,E,A,] (3[C,E,A,][C,E,A,][C,E,A,]!ped-up! | %80
!ped! (3_D,,[_D,F,A,][D,F,A,] (3[D,F,=A,][D,F,B,]!ped-up![D,F,B,]!ped! (3E,,[E,_A,][E,A,]!ped-up!!ped! (3E,,[E,G,B,][E,G,B,]!ped-up! | %81
!ped! (3[A,,,A,,][A,,C,E,][A,,C,E,] (3:2:1!/![A,,C,E,]3 (3:2:1!/![A,,C,E,]6!ped-up! | %82
!ped! (3[A,,,A,,][A,,C,E,][A,,C,E,] (3:2:1!/![A,,C,E,]3 (3:2:1!/![A,,C,E,]6!ped-up! | %83
!ped! (3[G,,,G,,][G,,C,E,][G,,C,E,] (3:2:1!/![G,,C,E,]3 (3:2:1!/![G,,C,E,]6!ped-up! | %84
!ped! (3[G,,,G,,][G,,C,E,][G,,C,E,] (3:2:1!/![G,,C,E,]3 (3:2:1!/![G,,C,E,]6!ped-up! | %85
!ped! (3[F,,,F,,][F,,C,E,][F,,C,E,]!ped-up! (3:2:1!/![F,,C,E,]3!ped! (3[^F,,,^F,,][F,,C,E,][F,,C,E,] (3:2:1!/![F,,C,E,]3!ped-up! | %86
 [G,,=B,,D,]6 (B,,>C, | .D,2 .D,2 .D,2 C,>D, | E,3 D, C,2) (_B,,>A,, | .G,,2 .G,,2 .G,,2 .G,,2) | %90
 C,4 z2 ([=B,,,=B,,]>[C,,C,] | %91
!ped! .[D,,D,]2 .[D,,D,]2 .[D,,D,]2!ped-up!!ped! [C,,C,]>[D,,D,]!ped-up! | %92
!ped! [E,,E,]3 [D,,D,] [C,,C,]2)!ped-up!!ped! ([B,,,B,,]>[A,,,A,,]!ped-up! | %93
!ped! [G,,,G,,]2 [G,,,G,,]2!ped-up!!ped! [G,,,G,,]2 [G,,,G,,]2!ped-up! | %94
 (3[C,,C,])G,G, (3:2:1!/!G,3 (6:4:1!/!G,6 | (6:4:1!/!G,6 (6:4:1!/!G,6 | (3:2:1!/!G,6 (3:2:1!/!G,6 | %97
 (3:2:1!/!G,6 (3:2:1!/!G,6 | (3:2:1!/!G,6 (3:2:1!/!G,6 | %99
 (3G,G,G, (3[^F,G,][F,G,][F,G,] (3[=F,G,][F,G,][F,G,] (3[E,G,][E,G,][D,G,] | %100
 (3:2:1!/![C,G,]3 (3:2:1!/![_B,,G,]3 (3:2:1!/![=A,,G,]3 (3:2:1!/![_A,,^F,]3 | %101
 (3:2:1!/![G,,=F,]3 (3:2:1!/![F,,G,,]3 (3:2:1!/![E,,G,,]3 (3:2:1!/![G,,,G,,]3 | %102
!>(! (3[C,,G,,] G,G, (3:2:1!/!G,3!>)! (3:2:1!/!G,6 | (3:2:1!/!A,3 (3:2:1!/!=A,3 (3:2:1!/!B,6 | %104
!>(! (3:2:1!/!B,3 (3:2:1!/!=B,3!>)! (3CG,G, (3:2:1!/!G,3 | (3:2:1!/!G,6 (3:2:1!/!G,6 | %106
"^cresc." (3:2:1!/!G,6 (3(G,A,=A, (3B,)B,B, | %107
 (3B,B,B, (3[=A,B,][A,B,][A,B,] (3[_A,B,][A,B,][A,B,] (3[G,B,][G,B,][F,A,B,] | %108
 (3:2:1!/![E,G,B,]3 (3:2:1!/![=B,,F,A,]3 (3:2:1!/![C,E,G,]3 (3F,F,F, | %109
 (3F,F,F, (3G,,G,,G,, (3G,,G,,G,, (3G,,G,,G,, | (3[C,,G,,C,]D,C, (3B,,C,B,, (3C,C,C, (3C,C,C, | %111
!ped! (3C,C,C, (3C,C,C, (3C,C,!ped-up!C, (3C,C,C, | %112
!ped! (3C,C,C, (3C,C,C, (3C,C,!ped-up!C, (3C,C,C, | %113
!ped! (3A,,A,,A,,!ped-up!!ped! (3A,,A,,A,,!ped-up!!ped! (3[G,,,G,,]G,,G,,!ped-up!!ped! (3[G,,,G,,]G,,G,,!ped-up! | %114
 (3[C,,G,,C,]E,D, (3!>!C,D,C, (3!>!=B,,C,B,, (3!>!_B,,C,B,, | %115
!ped! (3=A,,B,,A,,!ped-up! (3_A,,B,,A,, (3G,,A,,G,, (3F,,G,,F,, | %116
!ped! (3=E,,F,,E,,!ped-up! (3_E,,F,,E,, (3D,,E,,D,, (3C,,D,,E,, | %117
!ped! (3F,,E,,_D,,!ped-up!!ped! (3D,,E,,F,,!ped-up!!ped! (3[G,,,G,,]G,,G,,!ped-up!!ped! (3[G,,,G,,]G,,G,,!ped-up! | %118
!ped! (3:2:1!/!C,,3 (3:2:1!/!D,,3 (3:2:1!/!E,,3!ped-up! (3:2:1!/!=E,,3 | %119
 (3:2:1!/!F,,3 (3:2:1!/!^F,,3 (3:2:1!/!G,,3 (3:2:1!/!A,,3 | %120
 (3:2:1!/!C,6 (3:2:1!/!C,3 (3:2:1!/!C,3 | (3:2:1!/!=A,,6 (3:2:1!/!D,6 | %122
 (3:2:1!/![C,E,]6 (3:2:1!/!D,6 | (9:6:7(1:1:3D,D,D, (1:1:4(9:6:3D,D,D, (3:2:1!/!D,6 | %124
 z .G,,z.G,, z .D,,z.G,, | z C,,zC,, z G,,zG,, | z _A,,z=A,, z B,,zD, | z E,zC, z D,zD,, | %128
 z .G,,.=A,,.C, .B,,.G,.D,.B,, | z G,,zG,, z D,,zG,, | z C,,zF,, z B,,,zB,, | %131
 z =A,,zD,, z G,,zG,,, | z E,,zC,, z F,,zF,,, | z .B,,.C,.E, .D,.B,.F,.D, | %134
 B,,/D,/F,/D,/ B,,/D,/F,/D,/!<(! =A,,/C,/D,/C,/ G,,/C,/D,/C,/!<)! | %135
!>(! ^F,,/C,/D,/C,/ F,,/=A,,/D,/A,,/!>)! G,,/B,,/D,/B,,/ C,/E,/=A,/E,/ | %136
 D,/=A,/C/A,/ D,/A,/C/A,/ D,/A,/C/A,/ D,/A,/C/A,/ | %137
 G,/B,/G,/D,/ B,,/G,/D,/B,,/ G,,/ z/ z ([G,,G,]>[B,,B,] | [D,D]2 [D,D]2 [D,D]2 [D,D]2 | %139
 [E,E]4 [D,D]4 | [C,C]4 [B,,B,]4 | [=A,,=A,]2) ([C,C]2 [B,,B,]2 [A,,A,]2 | %142
 [G,,G,]6) ([G,,G,]>[B,,B,] | [D,D]2 [D,D]2 [D,D]2 [D,D]2 | [E,E]4 [D,D]4 | %145
 [C,C]4 [B,,B,]3 [=A,,=A,] | [G,,G,]2 [E,E]2 [D,D]2 [C,C]2 | [B,,B,]6) z2 | %148
 B,,/D,/F,/D,/ B,,/D,/F,/D,/ =A,,/C,/D,/C,/ G,,/C,/D,/C,/ | %149
 ^F,,/C,/D,/C,/ F,,/=A,,/D,/A,,/ G,,/B,,/D,/B,,/ C,/E,/=A,/E,/ | %150
 D,/=A,/C/A,/ D,/A,/C/A,/ D,/A,/C/A,/ D,/A,/C/A,/ || %151
[K:C] (3G,,[D,G,B,][D,G,B,] (3[D,G,B,][D,G,B,][D,G,B,] (3[D,G,B,][D,G,B,][D,G,B,] (3[D,G,B,][D,G,B,][D,G,B,] | %152
!ped! (3C,,[C,E,B,][C,E,B,] (3[C,E,^G,][C,E,G,][C,E,G,]!ped-up!!ped! (3[C,E,A,][C,E,A,][C,E,A,] (3[C,E,A,][C,E,A,][C,E,A,]!ped-up! | %153
!ped! (3B,,,[B,,D,A,][B,,D,A,] (3[B,,D,^F,][B,,D,F,][B,,D,F,]!ped-up!!ped! (3[B,,D,G,][B,,D,G,][B,,D,G,] (3[B,,D,G,][B,,D,G,][B,,D,G,]!ped-up! | %154
!ped! (3C,,[C,E,][C,E,] (3[C,E,][C,E,][C,E,]!ped-up!!ped! (3D,,[D,G,][D,G,] (3D,,[D,^F,][D,F,]!ped-up! | %155
!ped! (3G,,[D,G,B,][D,G,B,] (3:2:1!/![D,G,B,]3 (3:2:1!/![D,G,B,]6!ped-up! | %156
!ped! (3C,,[C,E,B,][C,E,B,]!ped-up! (3:2:1!/![C,E,B,]3!ped! (3:2:1!/![C,E,B,]6!ped-up! | %157
!ped! (3B,,,[B,,D,A,][B,,D,A,] (3[B,,D,A,][B,,D,A,][B,,D,A,]!ped-up!!ped! (3[B,,D,G,][B,,D,G,][B,,D,G,] (3[B,,D,G,][B,,D,G,][B,,D,G,]!ped-up! | %158
!ped! (3C,,[C,E,G,][C,E,G,] (3[C,E,^G,][C,E,G,][C,E,A,]!ped-up!!ped! (3D,,[D,=G,][D,G,]!ped-up!!ped! (3D,,[D,^F,A,][D,F,A,]!ped-up! | %159
!ped! [G,,D,G,]2 z2 z2!ped-up! (B,,>C, | .D,2 .D,2 .D,2 C,>D, | _E,3 D, C,2) (_B,,>_A,, | %162
 (.G,,2 .G,,2) (.G,,2 .G,,2) |"^tre corde" C,4) z2 ([B,,,B,,]>[C,,C,] | %164
 [D,,D,]2 [D,,D,]2 [D,,D,]2 [B,,,B,,]>[D,,D,] | %165
 [_E,,_E,]3 [D,,D,] [C,,C,]2) ([_B,,,_B,,]>[_A,,,_A,,] | %166
 .[G,,,G,,]2 .[G,,,G,,]2 .[G,,,G,,]2 .[G,,,G,,]2 | %167
 (3[C,,C,])(.G,.G, (3.G,.G,.G, (3.G,.G,.A, (3.G,.G,.G,) | (3:2:1!/!G,6 (3:2:1!/!G,6 | %169
 (3:2:1!/!G,6 (3:2:1!/!G,6 | (3G,G,G, (3G,G,[F,G,] (3[E,G,]G,G, (3[C,G,]G,G, | %171
"^cresc." (3[G,,G,]G,G, (3G,G,G, (3G,G,G, (3G,G,G, | %172
 (3G,G,G, (3[^F,G,][F,G,][F,G,] (3[=F,G,][F,G,][F,G,] (3[E,G,][E,G,][D,F,G,] | %173
 (3[C,E,G,][C,E,G,][C,E,G,] (3[^G,,D,F,][G,,D,F,][G,,D,F,] (3[A,,C,E,][A,,C,E,][A,,C,E,] (3F,,[F,A,][F,A,] | %174
 (3=G,,G,G, (3G,,G,G, (3G,,G,G, (3G,[G,A,][G,B,] | %175
"^decresc." (3[C,G,C]G,G, (3:2:1!/!G,3 (3:2:1!/!G,6 | %176
!ped! (3:2:1!/!G,6!ped-up!!ped! (3:2:1!/!G,6!ped-up! | %177
!ped!!>(! (3:2:1!/!G,6!>)!!ped-up! (3:2:1!/!G,6 | (3:2:1!/!G,6 (3:2:1!/!G,6 | %179
 (3G,G,G, (3G,G,(G,"^cresc." (3G,_A,=A, (3_B,)B,B, | %180
!ped! (3_B,B,B, (3[B,F][B,F][B,F]!ped-up!!ped! (3[B,D][B,D][B,D] (3B,B,B,!ped-up! | %181
!>(!!ped! (3_EEE (3[=B,DF]!>)![B,DF][B,DF]!ped-up!!ped! (3[CE][CE][CE] (3[F,_A,][F,A,][F,A,]!ped-up! | %182
 (3G,G,G, (3[F,G,]G,G, (3[_E,G,]G,G, (3[C,G,]G,G, | (3[G,,G,]G,G, (3:2:1!/!G,3 (3:2:1!/!G,6 | %184
!ped! (3G,G,G,!ped-up!!ped! (3[^F,G,]G,G,!ped-up!!ped! (3[=F,G,][E,G,][D,G,]!ped-up!!ped! (3[C,G,][B,,G,][_B,,G,]!ped-up! | %185
!ped! (3:2:1!/![A,,G,]6 (3[A,,G,]A,,A,,!ped-up! (3A,,A,,A,, | %186
!ped! (3(_B,,A,,)A,, (3A,,A,,A,, (3:2:1!/!A,,6!ped-up! | %187
!>(!!ped! (3:2:1!/!_A,,6!>)! (3:2:1!/!A,,6!ped-up! | %188
!ped! (3(G,,_A,,)A,, (3A,,A,,A,, (3A,,A,,!ped-up!A,, (3G,,G,,G,, | %189
!f!!ped!!>(! (3^F,,F,,F,, (3F,,F,,F,,!ped-up!!>)!!p! (3F,,F,,F,, (3F,,F,,F,, | %190
!pp!!ped! (3:2:1!/!G,,6!ped-up!!ped! (3:2:1!/!G,,6 | (3:2:1!/!C,,6!ped-up! (3:2:1!/!C,,6 | %192
 (3:2:1!/!C,,6 C,,2"_una corda" z2 | z2!ped! !>![G,G]4 z2!ped-up! | z2!ped! !>![G,G]4!ped-up! (CD | %195
 _E2 DC [G,=E]2 [G,D]2 |!ped! [C,G,C]6)!ped-up!!ppp! B,>C | (.D2!ped! .D2 .D2!ped-up! C>D | %198
 _E3!ped! D C)!ped-up!(G,CD | _E2 DC!ped! .[G,=E]2!ped-up!!ped! .[G,D]2!ped-up! | %200
!ped! [C,G,C]4) (.[G,E]2!ped-up!!ped! .[G,D]2!ped-up! | %201
!ped! [C,G,C]4) [G,,E,]2!ped-up!!ped! [G,,D,]2!ped-up! |!ped! [C,,G,,C,]4 [C,,G,,C,]4 | %203
 !fermata![C,,G,,C,]8!ped-up! |] %204
V:3
 x8 | x8 | x8 | x8 | x8 | x8 | x8 | x8 | x8 | x8 | x8 | x8 | x8 | x8 | x8 | x8 | x8 | %17
 z2 [^G=B]2 [=Ac]2 A2 | =A6 A2 | x8 | x8 | x8 | x8 | x8 | x8 | z2 [A_cd]2 [AB]2 [AB]2 | %26
 [GB]2 [Ad]2 G2 A2 | x8 | x8 | x8 | x8 | x8 | x8 | x8 | x8 | x8 | x8 | x8 | x8 | x8 | x8 | x8 | %42
 x8 | x8 | x8 | x8 | x8 | x8 | x8 | x8 | x8 | x8 | x8 | x8 | x8 | x8 | x8 | x8 | x8 | x8 | x8 | %61
 x8 | x8 | x6 [EG]2 | x8 | x8 | x8 | x8 | x6 [_GB]2 | x8 | x8 | x8 | x8 | x8 | x8 | x8 | x8 | x8 | %78
 f4 x4 | e4 x4 | x6 [_DG]2 | x8 | x8 | x8 | x8 | x8 | x8 | x8 | x8 | x8 | x8 | x8 | x8 | x8 | x8 | %95
 z2 F2 A2 z2 | z2 (E2 G2) z2 | z2 (F2 E2[I:staff +1] C2) |[I:staff -1]{/_A} G6 x2 | x8 | %100
 G6 [D^F]2 | [D=F]2 G->A [CG]2 [F=B]2 | E6 x2 | z2 F2 _A2 z2 | z2 G>A G2 z2 | %105
 z2 (_AG) (FE)[I:staff +1](DC) |[I:staff -1]{/A} G6 x2 | x8 | x6 F2 | [DG]2 D2 [CG]2 !>![F=B]2 | %110
 E6 x2 | x8 | x8 | x8 | x8 | x8 | x8 | x8 | x8 | x8 | x8 | (3EDD (3:2:1!/!D3 (3:2:1!/![DG]6 | %122
 (6:4:1!/![CE]6 x4 | x8 | d/D/G/B/ d/D/G/B/ d/D/^F/=A/ d/D/G/B/ | %125
 z/ E/G/c/ ^F/c/=A/F/ z/ D/G/B/ D/B/G/D/ | z/ C/E/^F/ C/F/E/C/ z/ B,/D/G/ B,/G/D/B,/ | %127
 =A/=A,/C/G/ c/E/G/A/ B/B,/D/G/ A/C/D/^F/ | z/ G,/B,/D/ E/C/=A,/E/!>(! D/B,/D/^F/ G/D/G/B/!>)! | %129
 (d/D/G/B/ d/D/G/B/ d/D/^F/=A/ d/D/G/B/ | z/"_cresc." E/G/c/ =A/c/A/F/ z/ D/F/B/ F/B/F/D/ | %131
 z/ C/E/"_decresc."=A/ ^F/A/F/D/ z/ B,/D/G/ D/G/D/B,/ | G/)E/D/C/ e/E/G/c/ d/D/F/B/ c/E/F/=A/ | %133
 B/B,/D/F/ _G/E/C/G/!>(! F/D/F/=A/ B/F/B/d/!>)! | x8 | x8 | x8 | x8 | x8 | x8 | x8 | x8 | x8 | x8 | %144
 x8 | x8 | x8 | x8 | x8 | x8 | x8 ||[K:C] x8 | x8 | x8 | x8 | x8 | e4 x4 | d4 x4 | x6 [C^F]2 | x8 | %160
 x8 | x8 | x8 | x8 | x8 | x8 | x8 | x8 | x8 | x8 | x8 | x8 | x8 | x8 | x8 | x8 | %176
 z2 [f_ab]2 [^f=ac']2 [fa]2 | [^fa]6 [da]2 | [dg]2 [dg]2 [cg]2 [gb]2 | g6 x2 | %180
 z2 _A2 [A_B]2 [AB]2 | [G_B]2 [_Ad]2 G2 F>_E | [DG]2 [DG]2 [CG]2 G2 | [GB]6 x2 | x8 | x8 | %186
 [G,^C]6 x2 | x8 | [F,B,]6 x2 | =A8 | G4 (F4 | E8-) | E6 x2 | x8 | x8 | x8 | x8 | x8 | x8 | x8 | %200
 x8 | x8 | x8 | x8 |] %204
V:4
 x8 | x8 | x8 | x8 | x8 | x8 | x8 | x8 | x8 | x8 | x8 | x8 | x8 | x8 | x8 | x8 | x8 | x8 | %18
 C3 D E2 ^F,2 | x8 | x8 | x8 | x8 | x8 | x8 | x8 | x8 | x8 | x8 | x8 | x8 | x8 | x8 | x8 | x8 | %35
 x8 | x8 | x8 | x8 | x8 | x8 | x8 | x8 | x8 | x8 | x8 | x8 | x8 | x8 | x8 | x8 | x8 | x8 | x8 | %54
 x2[K:treble] x6 | x8 | x8 | x8 | x8 | x6[K:bass] x2 | x8 | x8 | x8 | x8 | x8 | x8 | x8 | x4 _C,4 | %68
 x8 | x8 | x8 | x8 | x8 | x8 | x8 | x8 | x8 | x8 | x8 | x8 | x8 | x8 | x8 | x8 | x8 | x8 | x8 | %87
 x8 | x8 | x8 | x8 | x8 | x8 | x8 | x8 | x8 | x8 | x8 | x8 | x8 | x8 | x8 | x8 | x8 | x8 | x8 | %106
 x8 | x8 | x6 (3A,,_B,,A,, | (3G,,A,,G,, (3F,,G,,F,, (3E,,F,,E,, (3G,,,A,,,G,,, | %110
 x4 (3!>!A,,B,,A,, (3!>!G,,A,,G,, | (3!>!F,,G,,F,, (3!>!A,,B,,A,, (3!>!G,,A,,G,, (3!>!F,,G,,F,, | %112
 (3!>!E,,F,,E,, (3!>!G,,A,,A,, (3!>!F,,G,,F,, (3!>!E,,F,,E,, | (3_D,,E,,C,, (3D,,E,,F,, x4 | x8 | %115
 (6:4:1!/!C,6 (6:4:1!/!C,6 | (6:4:1!/!C,6 (6:4:1!/!C,6 | (6:4:1!/!A,,6 x4 | %118
 (6:4:1!/!C,6 (6:4:1!/!C,6 | (6:4:1!/!C,6 (6:4:1!/!C,6 | %120
 (3:2:1!/!A,,6 (3:2:1!/!A,,3 (3:2:1!/!A,,3 | (3C,D,D, (3:2:1!/!D,3 (3:2:1!/!B,,6 | x8 | G,,4 z4 | %124
 x8 | x8 | x8 | x8 | x8 | x8 | x8 | x8 | x8 | x8 | x8 | x8 | x8 | x8 | x8 | x8 | x8 | x8 | x8 | %143
 x8 | x8 | x8 | x8 | x8 | x8 | x8 | x8 ||[K:C] x8 | x8 | x8 | x8 | x8 | x8 | x8 | x8 | x8 | x8 | %161
 x8 | x8 | x8 | x8 | x8 | x8 | x8 | x8 | x8 | x8 | x8 | x8 | x8 | x8 | x8 | z4 z2 (D2 | %177
 C3 D _E2) (^F2 | G2 =F2 _E2 C2 | G4) x4 | x8 | x8 | x8 | x8 | x8 | x8 | x8 | x8 | x8 | %189
 (C,4 D,2 _E,2 | (=E,4) D,4 | C,8-) | C,6 x2 | x8 | x8 | x8 | x8 | x8 | x8 | x8 | x8 | x8 | x8 | %203
 x8 |] %204
V:5
 x8 | x8 | x8 | x8 | x8 | x8 | x8 | x8 | x8 | x8 | x8 | x8 | x8 | x8 | x8 | x8 | x8 | x8 | x8 | %19
 x8 | x8 | x8 | x8 | x8 | x8 | x8 | x6 F>E | x8 | x8 | x8 | x8 | x8 | x8 | x8 | x8 | x8 | x8 | x8 | %38
 x8 | x8 | x8 | x8 | x8 | x8 | x8 | x8 | x8 | x8 | x8 | x8 | x8 | x8 | x8 | x8 | x8 | x8 | x8 | %57
 x8 | x8 | x8 | x8 | x8 | x8 | x8 | x8 | x8 | x8 | x8 | x8 | x8 | x8 | x8 | x8 | x8 | x8 | x8 | %76
 x8 | x8 | x8 | x8 | x8 | x8 | x8 | x8 | x8 | x8 | x8 | x8 | x8 | x8 | x8 | x8 | x8 | x8 | x8 | %95
 x8 | x8 | x8 | x8 | x8 | E3 D [CG]2 x2 | x2 D2 x4 | x8 | x8 | x8 | x8 | x8 | x8 | x8 | %109
 x2 G->A x4 | x8 | x8 | x8 | x8 | x8 | x8 | x8 | x8 | x8 | x8 | x8 | x8 | x8 | x8 | x8 | x8 | x8 | %127
 x8 | x8 | x8 | x8 | x8 | x8 | x8 | x8 | x8 | x8 | x8 | x8 | x8 | x8 | x8 | x8 | x8 | x8 | x8 | %146
 x8 | x8 | x8 | x8 | x8 ||[K:C] x8 | x8 | x8 | x8 | x8 | x8 | x8 | x8 | x8 | x8 | x8 | x8 | x8 | %164
 x8 | x8 | x8 | x8 | x8 | x8 | x8 | x8 | x8 | x8 | x8 | x8 | x8 | x8 | x8 | x8 | x8 | x6 _A2 | x8 | %183
 x8 | x8 | x8 | x8 | x8 | x8 | x8 | x8 | x8 | x8 | x8 | x8 | x8 | x8 | x8 | x8 | x8 | x8 | x8 | %202
 x8 | x8 |] %204

